svg/400/outlined/weather_snowy-fill.svg

<svg xmlns="http://www.w3.org/2000/svg" width="48" height="48" viewBox="0 -960 960 960"><path d="M259.859-210Q243-210 231.5-221.641t-11.5-28.5Q220-267 231.641-278.5t28.5-11.5Q277-290 288.5-278.359t11.5 28.5Q300-233 288.359-221.5t-28.5 11.5Zm120 130Q363-80 351.5-91.64 340-103.283 340-120.142t11.641-28.359q11.641-11.5 28.5-11.5T408.5-148.36q11.5 11.641 11.5 28.5T408.359-91.5Q396.718-80 379.859-80Zm120-130Q483-210 471.5-221.641t-11.5-28.5Q460-267 471.641-278.5t28.5-11.5Q517-290 528.5-278.359t11.5 28.5Q540-233 528.359-221.5t-28.5 11.5Zm240 0Q723-210 711.5-221.641t-11.5-28.5Q700-267 711.641-278.5t28.5-11.5Q757-290 768.5-278.359t11.5 28.5Q780-233 768.359-221.5t-28.5 11.5Zm-120 130Q603-80 591.5-91.64 580-103.283 580-120.142t11.641-28.359q11.641-11.5 28.5-11.5T648.5-148.36q11.5 11.641 11.5 28.5T648.359-91.5Q636.718-80 619.859-80ZM290-380q-86.864 0-148.432-61.52Q80-503.04 80-589.835 80-669 136.5-731 193-793 277-799q32-56 84.5-88.5T480.423-920Q571-920 632.5-862.5T708-720q79 4 125.5 53.5T880-550.377Q880-480 830.417-430 780.833-380 710-380H290Z"/></svg>

<svg xmlns="http://www.w3.org/2000/svg" width="48" height="48" viewBox="0 -960 960 960"><path d="M259.86-210q-16.86 0-28.36-11.64t-11.5-28.5q0-16.86 11.64-28.36t28.5-11.5q16.86 0 28.36 11.64t11.5 28.5q0 16.86-11.64 28.36t-28.5 11.5Zm120 130Q363-80 351.5-91.64t-11.5-28.5q0-16.86 11.64-28.36t28.5-11.5q16.86 0 28.36 11.64t11.5 28.5q0 16.86-11.64 28.36T379.86-80Zm120-130q-16.86 0-28.36-11.64t-11.5-28.5q0-16.86 11.64-28.36t28.5-11.5q16.86 0 28.36 11.64t11.5 28.5q0 16.86-11.64 28.36t-28.5 11.5Zm240 0q-16.86 0-28.36-11.64t-11.5-28.5q0-16.86 11.64-28.36t28.5-11.5q16.86 0 28.36 11.64t11.5 28.5q0 16.86-11.64 28.36t-28.5 11.5Zm-120 130Q603-80 591.5-91.64t-11.5-28.5q0-16.86 11.64-28.36t28.5-11.5q16.86 0 28.36 11.64t11.5 28.5q0 16.86-11.64 28.36T619.86-80ZM290-380q-86.86 0-148.43-61.52Q80-503.04 80-589.83 80-669 136.5-731 193-793 277-799q32-56 84.5-88.5T480.42-920q90.58 0 152.08 57.5Q694-805 708-720q79 4 125.5 53.5T880-550.38Q880-480 830.42-430 780.83-380 710-380H290Z"/></svg>
